teeny/solid/apple.svg

<svg width="15" height="15" viewBox="0 0 15 15" fill="none" xmlns="http://www.w3.org/2000/svg">
<path d="M7.87456 2.93707C7.66756 2.93707 7.49956 2.77259 7.49956 2.56993C7.49956 1.1506 8.67554 0 10.1245 0C10.3323 0 10.4995 0.164476 10.4995 0.367133C10.4995 1.78647 9.32429 2.93707 7.87456 2.93707Z" fill="black"/>
<path d="M7.87456 2.93707C7.66756 2.93707 7.49956 2.77259 7.49956 2.56993C7.49956 1.1506 8.67554 0 10.1245 0C10.3323 0 10.4995 0.164476 10.4995 0.367133C10.4995 1.78647 9.32429 2.93707 7.87456 2.93707Z" fill="black"/>
<path d="M13.3498 10.6678C13.4946 10.7743 13.5418 10.9674 13.4601 11.126C12.1401 13.7121 11.0871 15 10.1249 15C9.67713 15 9.23689 14.8583 8.8079 14.5822C8.18316 14.1791 7.37692 14.1622 6.73493 14.5381C6.21518 14.8429 5.72019 15 5.24995 15C3.83472 15 1.5 10.7332 1.5 8.3916C1.5 5.89216 2.83873 3.986 4.87495 3.986C5.83269 3.986 6.65993 4.12405 7.35442 4.40454C7.64916 4.52349 7.98216 4.51468 8.2694 4.37957C8.8334 4.1145 9.57664 3.986 10.4999 3.986C11.6264 3.986 12.6081 4.53524 13.4248 5.60139C13.5486 5.76366 13.5156 5.99349 13.3498 6.11538C12.4386 6.78429 11.9999 7.53618 11.9999 8.3916C11.9999 9.24702 12.4386 9.99891 13.3498 10.6678Z" fill="black"/>
<path d="M13.3498 10.6678C13.4946 10.7743 13.5418 10.9674 13.4601 11.126C12.1401 13.7121 11.0871 15 10.1249 15C9.67713 15 9.23689 14.8583 8.8079 14.5822C8.18316 14.1791 7.37692 14.1622 6.73493 14.5381C6.21518 14.8429 5.72019 15 5.24995 15C3.83472 15 1.5 10.7332 1.5 8.3916C1.5 5.89216 2.83873 3.986 4.87495 3.986C5.83269 3.986 6.65993 4.12405 7.35442 4.40454C7.64916 4.52349 7.98216 4.51468 8.2694 4.37957C8.8334 4.1145 9.57664 3.986 10.4999 3.986C11.6264 3.986 12.6081 4.53524 13.4248 5.60139C13.5486 5.76366 13.5156 5.99349 13.3498 6.11538C12.4386 6.78429 11.9999 7.53618 11.9999 8.3916C11.9999 9.24702 12.4386 9.99891 13.3498 10.6678Z" fill="black"/>
</svg>

<svg viewBox="0 0 15 15" xmlns="http://www.w3.org/2000/svg" xmlns:xlink="http://www.w3.org/1999/xlink"><defs><path d="M7.87 2.93c-.21 0-.38-.17-.38-.37 0-1.42 1.17-2.57 2.62-2.57 .2 0 .37.16.37.36 0 1.41-1.18 2.56-2.63 2.56Z" id="a"/><path d="M13.34 10.66c.14.1.19.29.11.45 -1.32 2.58-2.38 3.87-3.34 3.87 -.45 0-.89-.15-1.32-.42 -.63-.41-1.44-.42-2.08-.05 -.52.3-1.02.46-1.49.46 -1.42 0-3.75-4.27-3.75-6.61 0-2.5 1.33-4.41 3.37-4.41 .95 0 1.78.13 2.47.41 .29.11.62.11.91-.03 .56-.27 1.3-.4 2.23-.4 1.12 0 2.1.54 2.92 1.61 .12.16.09.39-.08.51 -.92.66-1.35 1.42-1.35 2.27 0 .85.43 1.6 1.34 2.27Z" id="b"/></defs><g><use xlink:href="#a"/><use xlink:href="#a"/><use xlink:href="#b"/><use xlink:href="#b"/></g></svg>
